X:4851
L:1/8
Q:1/4=120
M:4/4
K:Gmin
"^Andante comato" dc | BAGF DCB,C | DGGA G3 A | BABc dgga | bg^fa g2 =fg | agfe d2 c2 | 
 GBAG F2 GA | Bggf decd | A2 G>G G2 || GF | DCDF G2 GA | BdcA B2 AG | FDCD F2 FG | A2 G>G G2 fg | 
 agfe d2 cA | GBAG F2 FG A | Bggf decd | A2 G>G G2 ||

